actions/22x22-light/quickopen-file.svg

<svg xmlns="http://www.w3.org/2000/svg" viewBox="0 0 22 22">
 <defs id="defs3051">
   <style type="text/css" id="current-color-scheme">
     .ColorScheme-Text {
       color:#4d4d4d;
     }
     </style>
 </defs>
   <path
      style="fill:currentColor;fill-opacity:1;stroke:none"
      d="m4.59961 3c-.4432 0-.79883.35758-.79883.80078v14.39844c0 .4432.35563.80078.79883.80078h12.80078c.4432 0 .79883-.35758.79883-.80078v-14.39844c0-.4432-.35563-.80078-.79883-.80078zm7.42773 3-.71875 3.5 2.77344 1.5-4.10938 5 .71875-3.5-2.77343-1.5z"
      class="ColorScheme-Text" />
</svg>

<svg xmlns="http://www.w3.org/2000/svg" viewBox="0 0 22 22">
  <defs id="defs3051">
    <style type="text/css" id="current-color-scheme">
      .ColorScheme-Text {
        color:#4d4d4d
      }
      </style>
  </defs>
 <path 
     style="fill:currentColor;fill-opacity:1;stroke:none"      
	 class="ColorScheme-Text"
        d="M 4.59961,3 C 4.15641,3 3.80078,3.35758 3.80078,3.80078 l 0,14.39844 C 3.80078,18.64242 4.15641,19 4.59961,19 l 12.80078,0 c 0.4432,0 0.79883,-0.35758 0.79883,-0.80078 l 0,-14.39844 C 18.19922,3.35758 17.84359,3 17.40039,3 L 4.59961,3 Z M 12.02734,6 11.30859,9.5 14.08203,11 9.97265,16 10.6914,12.5 7.91797,11 12.02734,6 Z"
     />
</svg>
